lib/brands/logos/soundcloud.svg

<svg xmlns="http://www.w3.org/2000/svg" fill="none" aria-hidden="true" viewBox="0 0 139 84"><g id="Soundcloud"><g id="Group"><path id="Vector" fill="url(#paint0_linear_93_16034)" d="M60.3993 46.5986L59.6258 18.3943C59.6258 17.5177 58.904 16.8474 58.079 16.8474C57.2024 16.8474 56.5321 17.5177 56.5321 18.3943L55.8103 46.5986L56.5321 60.1594C56.5321 61.036 57.254 61.7063 58.079 61.7063C58.9555 61.7063 59.6258 61.036 59.6258 60.1594L60.3993 46.5986Z"/><path id="Vector_2" fill="url(#paint1_linear_93_16034)" d="M54.8309 46.5985L53.9544 17.3113C53.9544 16.4863 53.284 15.8676 52.5106 15.8676C51.7372 15.8676 51.0669 16.4863 51.0669 17.3113L50.2935 46.5469L51.0669 60.2108C51.0669 61.0358 51.7372 61.6545 52.5106 61.6545C53.284 61.6545 53.9544 61.0358 53.9544 60.2108L54.8309 46.5985Z"/><path id="Vector_3" fill="url(#paint2_linear_93_16034)" d="M42.8166 17.5174C42.765 16.8471 42.2494 16.2799 41.5791 16.2799C40.9088 16.2799 40.3932 16.7955 40.3416 17.5174L39.4651 46.5468L40.3416 60.4169C40.3416 61.0872 40.9088 61.6029 41.5791 61.6029C42.2494 61.6029 42.765 61.0872 42.8166 60.3654L43.8478 46.4952L42.8166 17.5174Z"/><path id="Vector_4" fill="url(#paint3_linear_93_16034)" d="M48.3852 16.5379C48.3852 15.816 47.7665 15.1973 47.0446 15.1973C46.3228 15.1973 45.704 15.7644 45.704 16.5379L44.879 46.5469L45.704 60.314C45.704 61.0358 46.3228 61.6546 47.0446 61.6546C47.7665 61.6546 48.3337 61.0874 48.3852 60.314L49.3134 46.5469L48.3852 16.5379Z"/><path id="Vector_5" fill="url(#paint4_linear_93_16034)" d="M20.2842 61.2933C20.6967 61.2933 21.006 60.9839 21.0576 60.5199L22.3982 46.5466L21.0576 32.1092C21.006 31.6967 20.6967 31.3358 20.2842 31.3358C19.8717 31.3358 19.5623 31.6452 19.5108 32.1092L18.3248 46.5466L19.5108 60.5199C19.5108 60.9839 19.8717 61.2933 20.2842 61.2933Z"/><path id="Vector_6" fill="url(#paint5_linear_93_16034)" d="M66.0198 46.5983L65.2979 13.083C65.2979 12.5158 64.9886 12.0002 64.5245 11.6908C64.2667 11.5362 63.9573 11.3815 63.5964 11.3815C63.287 11.3815 62.9776 11.4846 62.6683 11.6393C62.2042 11.9487 61.8948 12.4643 61.8948 13.0315V13.3408L61.2761 46.5467L61.8948 60.0044V60.0559C61.8948 60.4169 62.0495 60.7778 62.3073 61.0356C62.6167 61.3965 63.0808 61.6544 63.5964 61.6544C64.0604 61.6544 64.4729 61.4481 64.7823 61.1903C65.0917 60.8809 65.2979 60.4684 65.2979 60.0044L65.3495 58.6638L66.0198 46.5983Z"/><path id="Vector_7" fill="url(#paint6_linear_93_16034)" d="M26.42 33.1407C26.3684 32.6251 26.0075 32.2642 25.5434 32.2642C25.0794 32.2642 24.6669 32.6251 24.6669 33.1407L23.5841 46.5468L24.6669 60.6232C24.7184 61.1388 25.0794 61.4998 25.5434 61.4998C26.0075 61.4998 26.42 61.1388 26.42 60.6232L27.6575 46.5468L26.42 33.1407Z"/><path id="Vector_8" fill="url(#paint7_linear_93_16034)" d="M30.8542 23.7567C30.3386 23.7567 29.8745 24.1692 29.8745 24.7364L28.8433 46.5471L29.8745 60.6235C29.9261 61.1907 30.3386 61.6032 30.8542 61.6032C31.3698 61.6032 31.8339 61.1907 31.8339 60.6235L33.0198 46.5471L31.8339 24.7364C31.8339 24.2208 31.3698 23.7567 30.8542 23.7567Z"/><path id="Vector_9" fill="url(#paint8_linear_93_16034)" d="M37.2481 60.6235L38.3309 46.5986L37.2481 19.7864C37.1965 19.1677 36.7325 18.7036 36.1137 18.7036C35.495 18.7036 35.0309 19.1677 34.9794 19.7864L33.9997 46.5986L34.9794 60.6235C34.9794 61.2422 35.495 61.7063 36.1137 61.7063C36.7325 61.7578 37.1965 61.2422 37.2481 60.6235Z"/><path id="Vector_10" fill="url(#paint9_linear_93_16034)" d="M70.0933 8.49389C69.8355 8.33921 69.5261 8.23608 69.1652 8.23608C68.7527 8.23608 68.3402 8.39077 68.0308 8.64858C67.6183 8.95795 67.3605 9.47357 67.3605 10.0408V10.247L66.6386 46.6497L66.9996 53.3528L67.3605 59.9011C67.3605 60.8808 68.1855 61.6542 69.1652 61.6542C70.1448 61.6542 70.9183 60.8293 70.9698 59.8496L71.7433 46.5982L70.9698 10.0408C70.9183 9.37045 70.6089 8.80327 70.0933 8.49389Z"/><path id="Vector_11" fill="url(#paint10_linear_93_16034)" d="M4.9703 54.2811C5.22811 54.2811 5.43436 54.0748 5.48592 53.7654L6.62028 46.5468L5.48592 39.225C5.43436 38.9156 5.22811 38.7094 4.9703 38.7094C4.71249 38.7094 4.45468 38.9156 4.45468 39.225L3.47501 46.5468L4.45468 53.7654C4.45468 54.0748 4.71249 54.2811 4.9703 54.2811Z"/><path id="Vector_12" fill="url(#paint11_linear_93_16034)" d="M9.86874 58.6638C10.1266 58.6638 10.3844 58.4575 10.4359 58.1482L11.9312 46.5467L10.4359 34.6875C10.3844 34.3781 10.1781 34.1719 9.86874 34.1719C9.61093 34.1719 9.35312 34.3781 9.30156 34.6875L8.01251 46.5467L9.30156 58.1482C9.35312 58.4575 9.55937 58.6638 9.86874 58.6638Z"/><path id="Vector_13" fill="url(#paint12_linear_93_16034)" d="M15.0248 60.7779C15.3857 60.7779 15.6435 60.52 15.6951 60.1076L17.0873 46.5468L15.6951 32.4704C15.6435 32.1094 15.3857 31.8 15.0248 31.8C14.6639 31.8 14.4061 32.0579 14.3545 32.4704L13.117 46.5468L14.3545 60.1076C14.4061 60.4685 14.6639 60.7779 15.0248 60.7779Z"/><path id="Vector_14" fill="url(#paint13_linear_93_16034)" d="M119.231 29.2736C117.014 29.2736 114.9 29.7377 112.941 30.5111C111.652 15.9191 99.3801 4.42078 84.4271 4.42078C80.7662 4.42078 77.2084 5.14264 74.0632 6.38013C72.8257 6.84419 72.5163 7.35981 72.5163 8.28792V59.7983C72.5163 60.778 73.2897 61.5514 74.2694 61.6545H119.283C128.255 61.6545 135.525 54.4874 135.525 45.5156C135.473 36.5439 128.203 29.2736 119.231 29.2736Z"/><path id="Vector_15" fill="#F04923" d="M16.4172 71.4511C14.5094 70.9871 13.9938 70.7808 13.9938 70.0074C13.9938 69.4918 14.4063 68.9246 15.6953 68.9246C16.7781 68.9246 17.6547 69.3886 18.4281 70.1621L20.1812 68.4605C19.0469 67.2746 17.6547 66.5527 15.7985 66.5527C13.4266 66.5527 11.5188 67.8933 11.5188 70.0589C11.5188 72.4308 13.0657 73.1527 15.2828 73.6167C17.5516 74.1323 17.9641 74.4933 17.9641 75.2667C17.9641 76.1948 17.2938 76.5557 15.85 76.5557C14.7157 76.5557 13.6329 76.1433 12.7563 75.1636L11.0032 76.7104C11.9313 78.051 13.6844 78.876 15.6438 78.876C18.9437 78.876 20.3359 77.3292 20.3359 75.0604C20.439 72.5339 18.325 71.8636 16.4172 71.4511ZM27.503 66.6043C24.2031 66.6043 22.2953 69.1308 22.2953 72.7917C22.2953 76.4526 24.2546 78.9792 27.503 78.9792C30.7514 78.9792 32.7108 76.4526 32.7108 72.7917C32.7108 69.1308 30.7514 66.6043 27.503 66.6043ZM27.503 76.5557C25.5437 76.5557 24.7702 74.9058 24.7702 72.7402C24.7702 70.5746 25.5952 68.9246 27.503 68.9246C29.4624 68.9246 30.2358 70.5746 30.2358 72.7402C30.2358 74.9058 29.4108 76.5557 27.503 76.5557ZM42.4044 73.5136C42.4044 75.4214 41.4763 76.6073 39.9294 76.6073C38.3826 76.6073 37.4545 75.3698 37.4545 73.462V66.759H35.0311V73.5136C35.0311 77.0198 36.9904 78.9792 39.8779 78.9792C42.92 78.9792 44.7247 76.9682 44.7247 73.5136V66.8105H42.3013V73.5136H42.4044ZM55.1402 71.8636C55.1402 72.5339 55.1918 74.0292 55.1918 74.4933C55.0371 74.1839 54.6246 73.5652 54.3668 73.1527L50.0871 66.8105H47.7669V78.8245H50.1387V73.5136C50.1387 72.8433 50.0871 71.348 50.0871 70.8839C50.2418 71.1933 50.6543 71.8121 50.9121 72.2245L55.2949 78.7729H57.4605V66.759H55.0887V71.8636H55.1402ZM64.3698 66.759H60.6058V78.7729H64.1636C67.2573 78.7729 70.2994 76.9682 70.2994 72.7917C70.2994 68.3574 67.7729 66.759 64.3698 66.759ZM64.1636 76.4526H62.9776V69.1308H64.2667C66.7932 69.1308 67.876 70.3683 67.876 72.7917C67.876 74.9573 66.6901 76.4526 64.1636 76.4526ZM77.7243 68.9761C78.8071 68.9761 79.4774 69.4402 79.9415 70.2652L82.1587 69.234C81.3852 67.6871 80.0446 66.5527 77.7759 66.5527C74.6306 66.5527 72.465 69.0793 72.465 72.7402C72.465 76.5042 74.5791 78.9276 77.7243 78.9276C79.8899 78.9276 81.3337 77.8964 82.1587 76.1948L80.1477 75.0089C79.529 76.0917 78.8587 76.5557 77.7759 76.5557C75.9712 76.5557 74.94 74.9058 74.94 72.7402C74.94 70.523 75.9712 68.9761 77.7243 68.9761ZM86.6446 66.759H84.2211V78.7729H91.4398V76.4011H86.6446V66.759ZM97.7819 66.6043C94.482 66.6043 92.5742 69.1308 92.5742 72.7917C92.5742 76.4526 94.5335 78.9792 97.7819 78.9792C101.082 78.9792 102.99 76.4526 102.99 72.7917C102.99 69.1308 101.082 66.6043 97.7819 66.6043ZM97.7819 76.5557C95.8226 76.5557 95.0491 74.9058 95.0491 72.7402C95.0491 70.5746 95.8741 68.9246 97.7819 68.9246C99.7413 68.9246 100.515 70.5746 100.515 72.7402C100.515 74.9058 99.7413 76.5557 97.7819 76.5557ZM112.683 73.5136C112.683 75.4214 111.755 76.6073 110.208 76.6073C108.661 76.6073 107.733 75.3698 107.733 73.462V66.759H105.31V73.5136C105.31 77.0198 107.269 78.9792 110.157 78.9792C113.199 78.9792 115.004 76.9682 115.004 73.5136V66.8105H112.58V73.5136H112.683ZM121.861 66.759H118.097V78.7729H121.655C124.749 78.7729 127.791 76.9682 127.791 72.7917C127.791 68.3574 125.264 66.759 121.861 66.759ZM121.655 76.4526H120.521V69.1308H121.81C124.336 69.1308 125.368 70.3683 125.368 72.7917C125.368 74.9573 124.182 76.4526 121.655 76.4526Z"/></g></g><defs><linearGradient id="paint0_linear_93_16034" x1="58.0919" x2="58.0919" y1="4.42098" y2="61.7442" gradientUnits="userSpaceOnUse"><stop stop-color="#F6871F"/><stop offset="0.2393" stop-color="#F57E20"/><stop offset="0.6262" stop-color="#F36621"/><stop offset="1" stop-color="#F04923"/></linearGradient><linearGradient id="paint1_linear_93_16034" x1="52.5716" x2="52.5716" y1="4.42079" y2="61.744" gradientUnits="userSpaceOnUse"><stop stop-color="#F6871F"/><stop offset="0.2393" stop-color="#F57E20"/><stop offset="0.6262" stop-color="#F36621"/><stop offset="1" stop-color="#F04923"/></linearGradient><linearGradient id="paint2_linear_93_16034" x1="41.6578" x2="41.6578" y1="4.42064" y2="61.7439" gradientUnits="userSpaceOnUse"><stop stop-color="#F6871F"/><stop offset="0.2393" stop-color="#F57E20"/><stop offset="0.6262" stop-color="#F36621"/><stop offset="1" stop-color="#F04923"/></linearGradient><linearGradient id="paint3_linear_93_16034" x1="47.0934" x2="47.0934" y1="4.42081" y2="61.7444" gradientUnits="userSpaceOnUse"><stop stop-color="#F6871F"/><stop offset="0.2393" stop-color="#F57E20"/><stop offset="0.6262" stop-color="#F36621"/><stop offset="1" stop-color="#F04923"/></linearGradient><linearGradient id="paint4_linear_93_16034" x1="20.3422" x2="20.3422" y1="4.42045" y2="61.7439" gradientUnits="userSpaceOnUse"><stop stop-color="#F6871F"/><stop offset="0.2393" stop-color="#F57E20"/><stop offset="0.6262" stop-color="#F36621"/><stop offset="1" stop-color="#F04923"/></linearGradient><linearGradient id="paint5_linear_93_16034" x1="63.6551" x2="63.6551" y1="4.42061" y2="61.7442" gradientUnits="userSpaceOnUse"><stop stop-color="#F6871F"/><stop offset="0.2393" stop-color="#F57E20"/><stop offset="0.6262" stop-color="#F36621"/><stop offset="1" stop-color="#F04923"/></linearGradient><linearGradient id="paint6_linear_93_16034" x1="25.6069" x2="25.6069" y1="4.42071" y2="61.7442" gradientUnits="userSpaceOnUse"><stop stop-color="#F6871F"/><stop offset="0.2393" stop-color="#F57E20"/><stop offset="0.6262" stop-color="#F36621"/><stop offset="1" stop-color="#F04923"/></linearGradient><linearGradient id="paint7_linear_93_16034" x1="30.9147" x2="30.9147" y1="4.42097" y2="61.7443" gradientUnits="userSpaceOnUse"><stop stop-color="#F6871F"/><stop offset="0.2393" stop-color="#F57E20"/><stop offset="0.6262" stop-color="#F36621"/><stop offset="1" stop-color="#F04923"/></linearGradient><linearGradient id="paint8_linear_93_16034" x1="36.1832" x2="36.1832" y1="4.42092" y2="61.7444" gradientUnits="userSpaceOnUse"><stop stop-color="#F6871F"/><stop offset="0.2393" stop-color="#F57E20"/><stop offset="0.6262" stop-color="#F36621"/><stop offset="1" stop-color="#F04923"/></linearGradient><linearGradient id="paint9_linear_93_16034" x1="69.1927" x2="69.1927" y1="4.42051" y2="61.7439" gradientUnits="userSpaceOnUse"><stop stop-color="#F6871F"/><stop offset="0.2393" stop-color="#F57E20"/><stop offset="0.6262" stop-color="#F36621"/><stop offset="1" stop-color="#F04923"/></linearGradient><linearGradient id="paint10_linear_93_16034" x1="5.05785" x2="5.05785" y1="4.42064" y2="61.7441" gradientUnits="userSpaceOnUse"><stop stop-color="#F6871F"/><stop offset="0.2393" stop-color="#F57E20"/><stop offset="0.6262" stop-color="#F36621"/><stop offset="1" stop-color="#F04923"/></linearGradient><linearGradient id="paint11_linear_93_16034" x1="9.93892" x2="9.93892" y1="4.4206" y2="61.744" gradientUnits="userSpaceOnUse"><stop stop-color="#F6871F"/><stop offset="0.2393" stop-color="#F57E20"/><stop offset="0.6262" stop-color="#F36621"/><stop offset="1" stop-color="#F04923"/></linearGradient><linearGradient id="paint12_linear_93_16034" x1="15.1189" x2="15.1189" y1="4.42065" y2="61.744" gradientUnits="userSpaceOnUse"><stop stop-color="#F6871F"/><stop offset="0.2393" stop-color="#F57E20"/><stop offset="0.6262" stop-color="#F36621"/><stop offset="1" stop-color="#F04923"/></linearGradient><linearGradient id="paint13_linear_93_16034" x1="103.977" x2="103.977" y1="4.42078" y2="61.6643" gradientUnits="userSpaceOnUse"><stop stop-color="#F6871F"/><stop offset="0.2402" stop-color="#F57E20"/><stop offset="0.6306" stop-color="#F36621"/><stop offset="1" stop-color="#F04923"/></linearGradient></defs></svg>

<svg xmlns="http://www.w3.org/2000/svg" fill="none" aria-hidden="true" viewBox="0 0 139 84"><path fill="url(#a)" d="m60.4 46.599-.774-28.205c0-.876-.722-1.547-1.547-1.547a1.52 1.52 0 0 0-1.547 1.547L55.81 46.6l.722 13.56c0 .877.722 1.547 1.547 1.547a1.52 1.52 0 0 0 1.547-1.547l.773-13.56Z"/><path fill="url(#b)" d="m54.83 46.599-.876-29.288a1.44 1.44 0 0 0-1.443-1.443 1.44 1.44 0 0 0-1.444 1.443l-.773 29.236.773 13.664c0 .825.67 1.444 1.444 1.444.773 0 1.443-.62 1.443-1.444l.877-13.612Z"/><path fill="url(#c)" d="M42.817 17.517c-.052-.67-.568-1.237-1.238-1.237s-1.186.515-1.237 1.237l-.877 29.03.877 13.87c0 .67.567 1.186 1.237 1.186.67 0 1.186-.516 1.238-1.238l1.03-13.87-1.03-28.978Z"/><path fill="url(#d)" d="M48.385 16.538c0-.722-.618-1.34-1.34-1.34a1.33 1.33 0 0 0-1.341 1.34l-.825 30.009.825 13.767c0 .722.619 1.34 1.34 1.34.723 0 1.29-.567 1.341-1.34l.928-13.767-.928-30.01Z"/><path fill="url(#e)" d="M20.284 61.293c.413 0 .722-.31.774-.773l1.34-13.973-1.34-14.438c-.052-.412-.361-.773-.774-.773-.412 0-.722.31-.773.773l-1.186 14.438L19.51 60.52c0 .464.36.773.773.773Z"/><path fill="url(#f)" d="m66.02 46.598-.722-33.515c0-.567-.31-1.083-.773-1.392-.258-.155-.568-.31-.929-.31-.309 0-.618.104-.928.258-.464.31-.773.825-.773 1.393v.309l-.619 33.206.619 13.457v.052c0 .36.154.722.412.98.31.36.774.618 1.29.618.463 0 .876-.206 1.185-.464.31-.31.516-.722.516-1.186l.052-1.34.67-12.066Z"/><path fill="url(#g)" d="M26.42 33.14c-.052-.515-.413-.876-.877-.876a.869.869 0 0 0-.876.877l-1.083 13.406 1.083 14.076c.051.516.412.877.876.877a.87.87 0 0 0 .877-.877l1.237-14.076L26.42 33.14Z"/><path fill="url(#h)" d="M30.854 23.757a.98.98 0 0 0-.98.98l-1.03 21.81 1.03 14.077c.052.567.465.98.98.98a.98.98 0 0 0 .98-.98l1.186-14.077-1.186-21.81c0-.516-.464-.98-.98-.98Z"/><path fill="url(#i)" d="M37.248 60.623 38.331 46.6l-1.083-26.813c-.051-.618-.515-1.082-1.134-1.082-.619 0-1.083.464-1.135 1.082L34 46.6l.98 14.025c0 .618.516 1.082 1.135 1.082.619.052 1.083-.464 1.134-1.083Z"/><path fill="url(#j)" d="M70.093 8.494a1.78 1.78 0 0 0-2.062.155c-.413.309-.67.825-.67 1.392v.206l-.722 36.403.36 6.703.362 6.548c0 .98.825 1.753 1.804 1.753.98 0 1.753-.825 1.805-1.804l.773-13.252-.773-36.557c-.052-.67-.361-1.238-.877-1.547Z"/><path fill="url(#k)" d="M4.97 54.281c.258 0 .464-.206.516-.516l1.134-7.218-1.134-7.322c-.052-.31-.258-.516-.516-.516a.517.517 0 0 0-.515.516l-.98 7.322.98 7.218c0 .31.257.516.515.516Z"/><path fill="url(#l)" d="M9.869 58.664c.258 0 .515-.206.567-.516l1.495-11.601-1.495-11.86c-.052-.309-.258-.515-.567-.515-.258 0-.516.206-.567.516l-1.29 11.859 1.29 11.601c.051.31.257.516.567.516Z"/><path fill="url(#m)" d="M15.025 60.778c.36 0 .618-.258.67-.67l1.392-13.561-1.392-14.077c-.052-.36-.31-.67-.67-.67-.361 0-.619.258-.67.67l-1.238 14.077 1.237 13.56c.052.361.31.67.67.67Z"/><path fill="url(#n)" d="M119.231 29.274c-2.217 0-4.331.464-6.29 1.237-1.289-14.592-13.56-26.09-28.514-26.09-3.66 0-7.219.722-10.364 1.96-1.237.463-1.547.979-1.547 1.907v51.51c0 .98.774 1.753 1.753 1.856h45.014c8.972 0 16.242-7.167 16.242-16.138-.052-8.972-7.322-16.242-16.294-16.242Z"/><path fill="#F04923" d="M16.417 71.451c-1.908-.464-2.423-.67-2.423-1.444 0-.515.412-1.082 1.701-1.082 1.083 0 1.96.464 2.733 1.237l1.753-1.702c-1.134-1.185-2.526-1.907-4.383-1.907-2.371 0-4.28 1.34-4.28 3.506 0 2.372 1.548 3.094 3.765 3.558 2.269.515 2.681.876 2.681 1.65 0 .928-.67 1.289-2.114 1.289-1.134 0-2.217-.413-3.094-1.392l-1.753 1.546c.928 1.341 2.681 2.166 4.64 2.166 3.3 0 4.693-1.547 4.693-3.816.103-2.526-2.011-3.196-3.919-3.609Zm11.086-4.847c-3.3 0-5.208 2.527-5.208 6.188 0 3.66 1.96 6.187 5.208 6.187s5.208-2.526 5.208-6.187c0-3.661-1.96-6.188-5.208-6.188Zm0 9.952c-1.96 0-2.733-1.65-2.733-3.816 0-2.165.825-3.815 2.733-3.815 1.96 0 2.733 1.65 2.733 3.815 0 2.166-.825 3.816-2.733 3.816Zm14.901-3.042c0 1.907-.928 3.093-2.475 3.093-1.546 0-2.474-1.237-2.474-3.145v-6.703H35.03v6.755c0 3.506 1.96 5.465 4.847 5.465 3.042 0 4.847-2.01 4.847-5.465V66.81H42.3v6.703h.103Zm12.736-1.65c0 .67.052 2.165.052 2.63-.155-.31-.567-.929-.825-1.341l-4.28-6.343h-2.32v12.014h2.372v-5.31c0-.67-.052-2.166-.052-2.63.155.31.567.928.825 1.34l4.383 6.549h2.166V66.759h-2.372v5.105h.051Zm9.23-5.105h-3.764v12.014h3.558c3.093 0 6.135-1.805 6.135-5.981 0-4.435-2.526-6.033-5.93-6.033Zm-.206 9.694h-1.186V69.13h1.289c2.526 0 3.609 1.237 3.609 3.66 0 2.166-1.186 3.662-3.712 3.662Zm13.56-7.477c1.083 0 1.753.464 2.218 1.29l2.217-1.032c-.774-1.547-2.114-2.681-4.383-2.681-3.145 0-5.311 2.526-5.311 6.187 0 3.764 2.114 6.188 5.26 6.188 2.165 0 3.609-1.032 4.434-2.733l-2.011-1.186c-.619 1.083-1.29 1.547-2.372 1.547-1.805 0-2.836-1.65-2.836-3.816 0-2.217 1.031-3.764 2.784-3.764Zm8.92-2.217h-2.423v12.014h7.219V76.4h-4.795v-9.64Zm11.138-.155c-3.3 0-5.208 2.527-5.208 6.188 0 3.66 1.96 6.187 5.208 6.187 3.3 0 5.208-2.526 5.208-6.187 0-3.661-1.908-6.188-5.208-6.188Zm0 9.952c-1.96 0-2.733-1.65-2.733-3.816 0-2.165.825-3.815 2.733-3.815 1.96 0 2.733 1.65 2.733 3.815 0 2.166-.774 3.816-2.733 3.816Zm14.901-3.042c0 1.907-.928 3.093-2.475 3.093-1.547 0-2.475-1.237-2.475-3.145v-6.703h-2.423v6.755c0 3.506 1.959 5.465 4.847 5.465 3.042 0 4.847-2.01 4.847-5.465V66.81h-2.424v6.703h.103Zm9.178-6.755h-3.764v12.014h3.558c3.094 0 6.136-1.805 6.136-5.981 0-4.435-2.527-6.033-5.93-6.033Zm-.206 9.694h-1.134V69.13h1.289c2.526 0 3.558 1.237 3.558 3.66 0 2.166-1.186 3.662-3.713 3.662Z"/><defs><linearGradient id="a" x1="58.092" x2="58.092" y1="4.421" y2="61.744" gradientUnits="userSpaceOnUse"><stop stop-color="#F6871F"/><stop offset=".239" stop-color="#F57E20"/><stop offset=".626" stop-color="#F36621"/><stop offset="1" stop-color="#F04923"/></linearGradient><linearGradient id="b" x1="52.572" x2="52.572" y1="4.421" y2="61.744" gradientUnits="userSpaceOnUse"><stop stop-color="#F6871F"/><stop offset=".239" stop-color="#F57E20"/><stop offset=".626" stop-color="#F36621"/><stop offset="1" stop-color="#F04923"/></linearGradient><linearGradient id="c" x1="41.658" x2="41.658" y1="4.421" y2="61.744" gradientUnits="userSpaceOnUse"><stop stop-color="#F6871F"/><stop offset=".239" stop-color="#F57E20"/><stop offset=".626" stop-color="#F36621"/><stop offset="1" stop-color="#F04923"/></linearGradient><linearGradient id="d" x1="47.093" x2="47.093" y1="4.421" y2="61.744" gradientUnits="userSpaceOnUse"><stop stop-color="#F6871F"/><stop offset=".239" stop-color="#F57E20"/><stop offset=".626" stop-color="#F36621"/><stop offset="1" stop-color="#F04923"/></linearGradient><linearGradient id="e" x1="20.342" x2="20.342" y1="4.42" y2="61.744" gradientUnits="userSpaceOnUse"><stop stop-color="#F6871F"/><stop offset=".239" stop-color="#F57E20"/><stop offset=".626" stop-color="#F36621"/><stop offset="1" stop-color="#F04923"/></linearGradient><linearGradient id="f" x1="63.655" x2="63.655" y1="4.421" y2="61.744" gradientUnits="userSpaceOnUse"><stop stop-color="#F6871F"/><stop offset=".239" stop-color="#F57E20"/><stop offset=".626" stop-color="#F36621"/><stop offset="1" stop-color="#F04923"/></linearGradient><linearGradient id="g" x1="25.607" x2="25.607" y1="4.421" y2="61.744" gradientUnits="userSpaceOnUse"><stop stop-color="#F6871F"/><stop offset=".239" stop-color="#F57E20"/><stop offset=".626" stop-color="#F36621"/><stop offset="1" stop-color="#F04923"/></linearGradient><linearGradient id="h" x1="30.915" x2="30.915" y1="4.421" y2="61.744" gradientUnits="userSpaceOnUse"><stop stop-color="#F6871F"/><stop offset=".239" stop-color="#F57E20"/><stop offset=".626" stop-color="#F36621"/><stop offset="1" stop-color="#F04923"/></linearGradient><linearGradient id="i" x1="36.183" x2="36.183" y1="4.421" y2="61.744" gradientUnits="userSpaceOnUse"><stop stop-color="#F6871F"/><stop offset=".239" stop-color="#F57E20"/><stop offset=".626" stop-color="#F36621"/><stop offset="1" stop-color="#F04923"/></linearGradient><linearGradient id="j" x1="69.193" x2="69.193" y1="4.421" y2="61.744" gradientUnits="userSpaceOnUse"><stop stop-color="#F6871F"/><stop offset=".239" stop-color="#F57E20"/><stop offset=".626" stop-color="#F36621"/><stop offset="1" stop-color="#F04923"/></linearGradient><linearGradient id="k" x1="5.058" x2="5.058" y1="4.421" y2="61.744" gradientUnits="userSpaceOnUse"><stop stop-color="#F6871F"/><stop offset=".239" stop-color="#F57E20"/><stop offset=".626" stop-color="#F36621"/><stop offset="1" stop-color="#F04923"/></linearGradient><linearGradient id="l" x1="9.939" x2="9.939" y1="4.421" y2="61.744" gradientUnits="userSpaceOnUse"><stop stop-color="#F6871F"/><stop offset=".239" stop-color="#F57E20"/><stop offset=".626" stop-color="#F36621"/><stop offset="1" stop-color="#F04923"/></linearGradient><linearGradient id="m" x1="15.119" x2="15.119" y1="4.421" y2="61.744" gradientUnits="userSpaceOnUse"><stop stop-color="#F6871F"/><stop offset=".239" stop-color="#F57E20"/><stop offset=".626" stop-color="#F36621"/><stop offset="1" stop-color="#F04923"/></linearGradient><linearGradient id="n" x1="103.977" x2="103.977" y1="4.421" y2="61.664" gradientUnits="userSpaceOnUse"><stop stop-color="#F6871F"/><stop offset=".24" stop-color="#F57E20"/><stop offset=".631" stop-color="#F36621"/><stop offset="1" stop-color="#F04923"/></linearGradient></defs></svg>
